X:615
T: JESUS DER GIENG DEN BERG HINAN
N: E1957A
O: Europa, Mitteleuropa, Deutschland
R: geistlich, Fest - Lied, Biblischer Stoff, Passion
M: 3/4
L: 1/8
K: F
F2 | F4c2 | A4F2 | c4d2 | c4
c2 | A4B2 | c2c2B2 | A3GF2 | A2G2G2 | F4
A2 | A4A2 | A2B2c2 | c2B2A2 | G4
A2 | F2G2A2 | c2c2B2 | A2F2A2 | G4G2 | F4

